X: 42929
T: William Durette's Clog
R: barndance
M: 4/4
K: Dmajor
dAFA dfed|cAGE B2 cB|Aceg bage|1 defd A2 fe:|2 dfec d2||
aa^ga bafd|efge B2 cB|Aceg bage|1 defd A2:|2 dfec d2||

